dist/icons/sa-xt.svg

<svg width="29" height="16" xmlns="http://www.w3.org/2000/svg"><path fill-rule="evenodd" clip-rule="evenodd" d="m9.44188,5.83811-2.021-4.801h-3.021l3.061,6.381L.999878,15.0001H4.48088l4.361-5.60199h.04l2.14002,5.60199h3.06l-3.24-7.30199,5.781-6.661h-3.301l-3.84002,4.801h-.04zm7.45802-2.60063.48-2.2h10.782l-.46,2.2h-3.94l-2.541,11.76302h-2.92l2.539-11.76302h-3.94z"/></svg>

<svg width="30" height="16" xmlns="http://www.w3.org/2000/svg"><path fill-rule="evenodd" clip-rule="evenodd" d="m9.442,5.8136L7.421,1H4.4l3.061,6.39774L1,14.9996h3.481l4.361-5.61666h.04l2.14,5.61666h3.06l-3.24-7.32112L16.623,1h-3.301l-3.84,4.8136h-.04zM16.9,3.20614l.48-2.20577h10.782l-.46,2.20577h-3.94L21.221,15h-2.92L20.84,3.20614H16.9z"/></svg>
